X:244100
T:Abercairney House [1]
M:C
L:1/8
R:Strathspey
C:Niel Gow (1727-1807)
B:Gow â€“ Fifth Collection of Strathspey Reels (1809)
Z:AK/Fiddlerâ€™s Companion
K:Gmin
B/c|d<GB>G dGBg|c<FA>F cFA<f|d<GB>G dGBg|f>d {d}cB/A/ {A}G2 G:||
d|g>dgb g<af<g|fadf cF {d}cB/A/|gdgb gafg|f>c {d}cB/A/ {A}G2 Gd|
g>dgb g<af<g|fadf c>F {d}cB/A/|d<GB>G dGB<g|f>d {d}cB/A/ {A}G2

